source/img/icons/icon-arrow-black-and-green.svg

<svg width="109" height="41" viewBox="0 0 109 41" fill="none" xmlns="http://www.w3.org/2000/svg">
<circle cx="20.5" cy="20.5" r="20.5" fill="#B9FF66"/>
<path d="M11.2501 24.7009C10.5326 25.1151 10.2868 26.0325 10.701 26.75C11.1152 27.4674 12.0326 27.7132 12.7501 27.299L11.2501 24.7009ZM30.7694 16.3882C30.9839 15.588 30.509 14.7655 29.7088 14.5511L16.6688 11.057C15.8686 10.8426 15.0461 11.3175 14.8317 12.1177C14.6173 12.9179 15.0921 13.7404 15.8923 13.9548L27.4834 17.0606L24.3776 28.6517C24.1632 29.4519 24.6381 30.2744 25.4383 30.4888C26.2385 30.7033 27.061 30.2284 27.2754 29.4282L30.7694 16.3882ZM12.7501 27.299L30.0706 17.299L28.5706 14.7009L11.2501 24.7009L12.7501 27.299Z" fill="black"/>
<path d="M57.6 27.5V13.5H59.28V25.98H66.36V27.5H57.6ZM71.578 27.78C70.898 27.78 70.278 27.66 69.718 27.42C69.158 27.18 68.718 26.8333 68.398 26.38C68.078 25.9267 67.918 25.3733 67.918 24.72C67.918 24.0533 68.078 23.5067 68.398 23.08C68.718 22.64 69.158 22.3133 69.718 22.1C70.278 21.8733 70.9046 21.76 71.598 21.76H74.898V21.04C74.898 20.3467 74.6913 19.8 74.278 19.4C73.878 19 73.278 18.8 72.478 18.8C71.6913 18.8 71.078 18.9933 70.638 19.38C70.198 19.7533 69.898 20.26 69.738 20.9L68.258 20.42C68.418 19.8733 68.6713 19.38 69.018 18.94C69.3646 18.4867 69.8246 18.1267 70.398 17.86C70.9846 17.58 71.6846 17.44 72.498 17.44C73.7513 17.44 74.7246 17.7667 75.418 18.42C76.1113 19.06 76.458 19.9667 76.458 21.14V25.56C76.458 25.96 76.6446 26.16 77.018 26.16H77.918V27.5H76.538C76.098 27.5 75.7446 27.38 75.478 27.14C75.2113 26.8867 75.078 26.5533 75.078 26.14V26.04H74.838C74.6913 26.2933 74.4913 26.56 74.238 26.84C73.998 27.1067 73.6646 27.3267 73.238 27.5C72.8113 27.6867 72.258 27.78 71.578 27.78ZM71.758 26.42C72.6913 26.42 73.4446 26.1467 74.018 25.6C74.6046 25.04 74.898 24.26 74.898 23.26V23.04H71.658C71.0313 23.04 70.5113 23.18 70.098 23.46C69.698 23.7267 69.498 24.1333 69.498 24.68C69.498 25.2267 69.7046 25.6533 70.118 25.96C70.5446 26.2667 71.0913 26.42 71.758 26.42ZM85.5019 27.78C84.4885 27.78 83.6952 27.5867 83.1219 27.2C82.5619 26.8133 82.1552 26.3733 81.9019 25.88H81.6219V27.5H80.0819V13.5H81.6619V19.26H81.9419C82.1019 18.9533 82.3285 18.6667 82.6219 18.4C82.9152 18.12 83.2952 17.8933 83.7619 17.72C84.2419 17.5333 84.8219 17.44 85.5019 17.44C86.3552 17.44 87.1285 17.6467 87.8219 18.06C88.5285 18.46 89.0885 19.04 89.5019 19.8C89.9152 20.5467 90.1219 21.44 90.1219 22.48V22.74C90.1219 23.78 89.9085 24.68 89.4819 25.44C89.0685 26.2 88.5085 26.78 87.8019 27.18C87.1085 27.58 86.3419 27.78 85.5019 27.78ZM85.0819 26.38C86.0952 26.38 86.9152 26.06 87.5419 25.42C88.1819 24.7667 88.5019 23.86 88.5019 22.7V22.52C88.5019 21.36 88.1819 20.46 87.5419 19.82C86.9152 19.1667 86.0952 18.84 85.0819 18.84C84.0819 18.84 83.2552 19.1667 82.6019 19.82C81.9619 20.46 81.6419 21.36 81.6419 22.52V22.7C81.6419 23.86 81.9619 24.7667 82.6019 25.42C83.2552 26.06 84.0819 26.38 85.0819 26.38ZM97.433 27.78C96.4463 27.78 95.5796 27.5733 94.833 27.16C94.0863 26.7333 93.5063 26.14 93.093 25.38C92.6796 24.62 92.473 23.74 92.473 22.74V22.5C92.473 21.4867 92.6796 20.6 93.093 19.84C93.5063 19.08 94.0796 18.4933 94.813 18.08C95.5463 17.6533 96.3863 17.44 97.333 17.44C98.253 17.44 99.0663 17.64 99.773 18.04C100.48 18.4267 101.033 18.9867 101.433 19.72C101.833 20.4533 102.033 21.3133 102.033 22.3V23.02H94.053C94.093 24.0733 94.433 24.9 95.073 25.5C95.713 26.0867 96.513 26.38 97.473 26.38C98.313 26.38 98.9596 26.1867 99.413 25.8C99.8663 25.4133 100.213 24.9533 100.453 24.42L101.813 25.08C101.613 25.4933 101.333 25.9067 100.973 26.32C100.626 26.7333 100.166 27.08 99.593 27.36C99.033 27.64 98.313 27.78 97.433 27.78ZM94.073 21.72H100.433C100.38 20.8133 100.066 20.1067 99.493 19.6C98.933 19.0933 98.213 18.84 97.333 18.84C96.4396 18.84 95.7063 19.0933 95.133 19.6C94.5596 20.1067 94.2063 20.8133 94.073 21.72ZM104.789 27.5V13.5H106.369V27.5H104.789Z" fill="black"/>
</svg>

<svg width="109" height="41" fill="none" xmlns="http://www.w3.org/2000/svg"><circle cx="20.5" cy="20.5" r="20.5" fill="#B9FF66"/><path d="M11.25 24.7a1.5 1.5 0 1 0 1.5 2.599l-1.5-2.598Zm19.52-8.312a1.5 1.5 0 0 0-1.061-1.837l-13.04-3.494a1.5 1.5 0 0 0-.777 2.898l11.591 3.106-3.105 11.59a1.5 1.5 0 0 0 2.897.777l3.494-13.04ZM12.75 27.3l17.32-10-1.5-2.598-17.32 10 1.5 2.598Zm44.85.2v-14h1.68v12.48h7.08v1.52H57.6Zm13.978.28c-.68 0-1.3-.12-1.86-.36s-1-.587-1.32-1.04c-.32-.453-.48-1.007-.48-1.66 0-.667.16-1.213.48-1.64.32-.44.76-.767 1.32-.98.56-.227 1.187-.34 1.88-.34h3.3v-.72c0-.693-.207-1.24-.62-1.64-.4-.4-1-.6-1.8-.6-.787 0-1.4.193-1.84.58-.44.373-.74.88-.9 1.52l-1.48-.48c.16-.547.413-1.04.76-1.48a3.621 3.621 0 0 1 1.38-1.08c.587-.28 1.287-.42 2.1-.42 1.253 0 2.227.327 2.92.98.693.64 1.04 1.547 1.04 2.72v4.42c0 .4.187.6.56.6h.9v1.34h-1.38c-.44 0-.793-.12-1.06-.36-.267-.253-.4-.587-.4-1v-.1h-.24c-.147.253-.347.52-.6.8-.24.267-.573.487-1 .66-.427.187-.98.28-1.66.28Zm.18-1.36c.933 0 1.687-.273 2.26-.82.587-.56.88-1.34.88-2.34v-.22h-3.24c-.627 0-1.147.14-1.56.42-.4.267-.6.673-.6 1.22 0 .547.207.973.62 1.28.427.307.973.46 1.64.46Zm13.744 1.36c-1.013 0-1.807-.193-2.38-.58-.56-.387-.967-.827-1.22-1.32h-.28v1.62h-1.54v-14h1.58v5.76h.28c.16-.307.387-.593.68-.86.293-.28.673-.507 1.14-.68.48-.187 1.06-.28 1.74-.28.853 0 1.627.207 2.32.62.706.4 1.266.98 1.68 1.74.413.747.62 1.64.62 2.68v.26c0 1.04-.213 1.94-.64 2.7-.413.76-.974 1.34-1.68 1.74-.694.4-1.46.6-2.3.6Zm-.42-1.4c1.013 0 1.833-.32 2.46-.96.64-.653.96-1.56.96-2.72v-.18c0-1.16-.32-2.06-.96-2.7-.627-.653-1.447-.98-2.46-.98-1 0-1.827.327-2.48.98-.64.64-.96 1.54-.96 2.7v.18c0 1.16.32 2.067.96 2.72.653.64 1.48.96 2.48.96Zm12.351 1.4c-.987 0-1.853-.207-2.6-.62a4.47 4.47 0 0 1-1.74-1.78c-.413-.76-.62-1.64-.62-2.64v-.24c0-1.013.207-1.9.62-2.66a4.372 4.372 0 0 1 1.72-1.76c.733-.427 1.573-.64 2.52-.64.92 0 1.733.2 2.44.6a4.11 4.11 0 0 1 1.66 1.68c.4.733.6 1.593.6 2.58v.72h-7.98c.04 1.053.38 1.88 1.02 2.48.64.587 1.44.88 2.4.88.84 0 1.487-.193 1.94-.58.453-.387.8-.847 1.04-1.38l1.36.66c-.2.413-.48.827-.84 1.24-.347.413-.807.76-1.38 1.04-.56.28-1.28.42-2.16.42Zm-3.36-6.06h6.36c-.053-.907-.367-1.613-.94-2.12-.56-.507-1.28-.76-2.16-.76-.893 0-1.627.253-2.2.76-.573.507-.927 1.213-1.06 2.12Zm10.716 5.78v-14h1.58v14h-1.58Z" fill="#000"/></svg>
